X: 36805
T: Shetland Molecule, The
R: reel
M: 4/4
K: Dmajor
|:GA|BGEG DE GA|Bd (3ddd edBA|AGEG DEGB|A2 AB A2 GA|
BGEG DE GA|Bd (3ddd edBd|fg gd e2 ge|1 dB AB G2:|2 dB AB GA Bd||
|:e3 d e3 f|gefd e3 f|gedB GABd|e2 dB A2 GA|
BGEG DE GA|Bd (3ddd edBd|g2 gd e2 ge|dB A2 G4:|

